static/img/kroki/a9331bf44b2ca56f9b2068b4ca669789.svg

<?xml version="1.0" encoding="us-ascii" standalone="no"?><svg xmlns="http://www.w3.org/2000/svg" xmlns:xlink="http://www.w3.org/1999/xlink" contentStyleType="text/css" height="767px" preserveAspectRatio="none" style="width:258px;height:767px;" version="1.1" viewBox="0 0 258 767" width="258px" zoomAndPan="magnify"><defs/><g><!--class azure_network_watcher--><g id="elem_azure_network_watcher"><rect codeLine="23" fill="#3D176E" height="100.3828" id="azure_network_watcher" rx="2.5" ry="2.5" style="stroke:#000D19;stroke-width:0.5;" width="244" x="7" y="660.14"/><ellipse cx="22" cy="680.0345" fill="#ADD1B2" rx="11" ry="11" style="stroke:#181818;stroke-width:1.0;"/><path d="M24.9688,685.6752 Q24.3906,685.972 23.75,686.1127 Q23.1094,686.2689 22.4063,686.2689 Q19.9063,686.2689 18.5781,684.6283 Q17.2656,682.972 17.2656,679.847 Q17.2656,676.722 18.5781,675.0658 Q19.9063,673.4095 22.4063,673.4095 Q23.1094,673.4095 23.75,673.5658 Q24.4063,673.722 24.9688,674.0189 L24.9688,676.7377 Q24.3438,676.1595 23.75,675.8939 Q23.1563,675.6127 22.5313,675.6127 Q21.1875,675.6127 20.5,676.6908 Q19.8125,677.7533 19.8125,679.847 Q19.8125,681.9408 20.5,683.0189 Q21.1875,684.0814 22.5313,684.0814 Q23.1563,684.0814 23.75,683.8158 Q24.3438,683.5345 24.9688,682.9564 L24.9688,685.6752 Z " fill="#000000"/><text fill="#D9B8FF" font-family="Helvetica" font-size="17" lengthAdjust="spacing" textLength="202" x="41" y="685.9198">azure_network_watcher</text><line style="stroke:#000D19;stroke-width:0.5;" x1="8" x2="250" y1="699.9291" y2="699.9291"/><text fill="#D9B8FF" font-family="sans-serif" font-size="14" font-weight="bold" lengthAdjust="spacing" textLength="62" x="18" y="721.9242">location</text><text fill="#D9B8FF" font-family="sans-serif" font-size="14" lengthAdjust="spacing" textLength="48" x="80" y="721.9242">: string</text><text fill="#D9B8FF" font-family="sans-serif" font-size="14" font-weight="bold" lengthAdjust="spacing" textLength="83" x="18" y="748.2211">properties</text><text fill="#D9B8FF" font-family="sans-serif" font-size="14" lengthAdjust="spacing" textLength="48" x="101" y="748.2211">: string</text></g><!--class microsoft_resource--><g id="elem_microsoft_resource"><rect codeLine="27" fill="#3D176E" height="100.3828" id="microsoft_resource" rx="2.5" ry="2.5" style="stroke:#000D19;stroke-width:0.5;" width="214" x="22" y="438.75"/><ellipse cx="43.3" cy="458.6445" fill="#ADD1B2" rx="11" ry="11" style="stroke:#181818;stroke-width:1.0;"/><path d="M46.2688,464.2852 Q45.6906,464.582 45.05,464.7227 Q44.4094,464.8789 43.7063,464.8789 Q41.2063,464.8789 39.8781,463.2383 Q38.5656,461.582 38.5656,458.457 Q38.5656,455.332 39.8781,453.6758 Q41.2063,452.0195 43.7063,452.0195 Q44.4094,452.0195 45.05,452.1758 Q45.7063,452.332 46.2688,452.6289 L46.2688,455.3477 Q45.6438,454.7695 45.05,454.5039 Q44.4563,454.2227 43.8313,454.2227 Q42.4875,454.2227 41.8,455.3008 Q41.1125,456.3633 41.1125,458.457 Q41.1125,460.5508 41.8,461.6289 Q42.4875,462.6914 43.8313,462.6914 Q44.4563,462.6914 45.05,462.4258 Q45.6438,462.1445 46.2688,461.5664 L46.2688,464.2852 Z " fill="#000000"/><text fill="#D9B8FF" font-family="Helvetica" font-size="17" lengthAdjust="spacing" textLength="158" x="63.7" y="464.5298">microsoft_resource</text><line style="stroke:#000D19;stroke-width:0.5;" x1="23" x2="235" y1="478.5391" y2="478.5391"/><text fill="#D9B8FF" font-family="sans-serif" font-size="14" font-weight="bold" lengthAdjust="spacing" textLength="35" x="33" y="500.5342">etag</text><text fill="#D9B8FF" font-family="sans-serif" font-size="14" lengthAdjust="spacing" textLength="48" x="68" y="500.5342">: string</text><text fill="#D9B8FF" font-family="sans-serif" font-size="14" font-weight="bold" lengthAdjust="spacing" textLength="144" x="33" y="526.8311">provisioning_state</text><text fill="#D9B8FF" font-family="sans-serif" font-size="14" lengthAdjust="spacing" textLength="48" x="177" y="526.8311">: string</text></g><!--class resource--><g id="elem_resource"><rect codeLine="31" fill="#3D176E" height="310.7578" id="resource" rx="2.5" ry="2.5" style="stroke:#000D19;stroke-width:0.5;" width="227" x="15.5" y="7"/><ellipse cx="84.25" cy="26.8945" fill="#ADD1B2" rx="11" ry="11" style="stroke:#181818;stroke-width:1.0;"/><path d="M87.2188,32.5352 Q86.6406,32.832 86,32.9727 Q85.3594,33.1289 84.6563,33.1289 Q82.1563,33.1289 80.8281,31.4883 Q79.5156,29.832 79.5156,26.707 Q79.5156,23.582 80.8281,21.9258 Q82.1563,20.2695 84.6563,20.2695 Q85.3594,20.2695 86,20.4258 Q86.6563,20.582 87.2188,20.8789 L87.2188,23.5977 Q86.5938,23.0195 86,22.7539 Q85.4063,22.4727 84.7813,22.4727 Q83.4375,22.4727 82.75,23.5508 Q82.0625,24.6133 82.0625,26.707 Q82.0625,28.8008 82.75,29.8789 Q83.4375,30.9414 84.7813,30.9414 Q85.4063,30.9414 86,30.6758 Q86.5938,30.3945 87.2188,29.8164 L87.2188,32.5352 Z " fill="#000000"/><text fill="#D9B8FF" font-family="Helvetica" font-size="17" lengthAdjust="spacing" textLength="71" x="109.75" y="32.7798">resource</text><line style="stroke:#000D19;stroke-width:0.5;" x1="16.5" x2="241.5" y1="46.7891" y2="46.7891"/><text fill="#D9B8FF" font-family="sans-serif" font-size="14" font-weight="bold" lengthAdjust="spacing" textLength="29" x="26.5" y="68.7842">age</text><text fill="#D9B8FF" font-family="sans-serif" font-size="14" lengthAdjust="spacing" textLength="66" x="55.5" y="68.7842">: duration</text><text fill="#D9B8FF" font-family="sans-serif" font-size="14" font-weight="bold" lengthAdjust="spacing" textLength="43" x="26.5" y="95.0811">atime</text><text fill="#D9B8FF" font-family="sans-serif" font-size="14" lengthAdjust="spacing" textLength="70" x="69.5" y="95.0811">: datetime</text><text fill="#D9B8FF" font-family="sans-serif" font-size="14" font-weight="bold" lengthAdjust="spacing" textLength="43" x="26.5" y="121.3779">ctime</text><text fill="#D9B8FF" font-family="sans-serif" font-size="14" lengthAdjust="spacing" textLength="70" x="69.5" y="121.3779">: datetime</text><text fill="#D9B8FF" font-family="sans-serif" font-size="14" font-weight="bold" lengthAdjust="spacing" textLength="14" x="26.5" y="147.6748">id</text><text fill="#D9B8FF" font-family="sans-serif" font-size="14" lengthAdjust="spacing" textLength="48" x="40.5" y="147.6748">: string</text><text fill="#D9B8FF" font-family="sans-serif" font-size="14" font-weight="bold" lengthAdjust="spacing" textLength="33" x="26.5" y="173.9717">kind</text><text fill="#D9B8FF" font-family="sans-serif" font-size="14" lengthAdjust="spacing" textLength="48" x="59.5" y="173.9717">: string</text><text fill="#D9B8FF" font-family="sans-serif" font-size="14" font-weight="bold" lengthAdjust="spacing" textLength="90" x="26.5" y="200.2686">last_access</text><text fill="#D9B8FF" font-family="sans-serif" font-size="14" lengthAdjust="spacing" textLength="66" x="116.5" y="200.2686">: duration</text><text fill="#D9B8FF" font-family="sans-serif" font-size="14" font-weight="bold" lengthAdjust="spacing" textLength="90" x="26.5" y="226.5654">last_update</text><text fill="#D9B8FF" font-family="sans-serif" font-size="14" lengthAdjust="spacing" textLength="66" x="116.5" y="226.5654">: duration</text><text fill="#D9B8FF" font-family="sans-serif" font-size="14" font-weight="bold" lengthAdjust="spacing" textLength="48" x="26.5" y="252.8623">mtime</text><text fill="#D9B8FF" font-family="sans-serif" font-size="14" lengthAdjust="spacing" textLength="70" x="74.5" y="252.8623">: datetime</text><text fill="#D9B8FF" font-family="sans-serif" font-size="14" font-weight="bold" lengthAdjust="spacing" textLength="43" x="26.5" y="279.1592">name</text><text fill="#D9B8FF" font-family="sans-serif" font-size="14" lengthAdjust="spacing" textLength="48" x="69.5" y="279.1592">: string</text><text fill="#D9B8FF" font-family="sans-serif" font-size="14" font-weight="bold" lengthAdjust="spacing" textLength="34" x="26.5" y="305.4561">tags</text><text fill="#D9B8FF" font-family="sans-serif" font-size="14" lengthAdjust="spacing" textLength="171" x="60.5" y="305.4561">: dictionary[string, string]</text></g><!--reverse link microsoft_resource to azure_network_watcher--><g id="link_microsoft_resource_azure_network_watcher"><path codeLine="43" d="M129,557.45 C129,593.47 129,624.03 129,660 " fill="none" id="microsoft_resource-backto-azure_network_watcher" style="stroke:#FFAF37;stroke-width:2.0;"/><polygon fill="none" points="129,539.45,123,557.45,135,557.45,129,539.45" style="stroke:#FFAF37;stroke-width:2.0;"/></g><!--reverse link resource to microsoft_resource--><g id="link_resource_microsoft_resource"><path codeLine="44" d="M129,336.06 C129,379.65 129,405.98 129,438.42 " fill="none" id="resource-backto-microsoft_resource" style="stroke:#FFAF37;stroke-width:2.0;"/><polygon fill="none" points="129,318.06,123,336.06,135,336.06,129,318.06" style="stroke:#FFAF37;stroke-width:2.0;"/></g><!--SRC=[XPDDIyD048Rl-HKBteg5Lj5QyQ85qOk8UXC9qzr9kpIx6sOdblhntzqaLJOVwYrvvvbttfcGjLOeq1Iy4mRD4iadVgDj0GH6N1AvxSBbZiH1ba5sFEiMhvtbVu4xC2XkC7z5rXAwnDDQour5xyLHLBe2kLcHAwrgx9d0-b12on6roC7xIsRIov8n2gFcoxCiwv9TquDZDPsTOWzpf93so6GoKTDv5_btr9zx_n2F-Wt5D3xQdMFinUoDgAa_KrP45BAtw7Vzrupte9IsAt4IQGzD9h98BVrn3SfjApg3tCTZF2EXurs1YzvME3zJsMmGllqDJcHrEW5l9M5gaRUEDkaMMAv3fFTaDCgT1DREZaRdmOz2fY0Mv0earkWZ-NFlPRGavrt6AQ5t9KciZP1XrJLvrJvOXzVKCp0EcBKiO5KZggGwKgMmDeqMsgldeCa1JQlMw72XjX1cSGfIXh-cCw6kb8NQnuigPc2E1OCjux1quwXbrGQqUsvgXtlc9QmwSB6BZ_5uFFnPaWxKxqw-0000]--></g></svg>

<svg xmlns="http://www.w3.org/2000/svg" width="258" height="767" viewBox="0 0 258 767"><rect width="244" height="100.383" x="7" y="660.14" fill="#3D176E" rx="2.5" ry="2.5" style="stroke:#000d19;stroke-width:.5"/><circle cx="22" cy="680.034" r="11" fill="#ADD1B2" style="stroke:#181818;stroke-width:1"/><path d="M24.969 685.675q-.578.297-1.219.438-.64.156-1.344.156-2.5 0-3.828-1.64-1.312-1.657-1.312-4.782t1.312-4.781q1.328-1.657 3.828-1.657.703 0 1.344.157.656.156 1.219.453v2.719q-.625-.579-1.219-.844-.594-.281-1.219-.281-1.343 0-2.031 1.078-.687 1.062-.687 3.156t.687 3.172q.688 1.062 2.031 1.062.625 0 1.219-.265.594-.282 1.219-.86z"/><text x="41" y="685.92" fill="#D9B8FF" font-family="Helvetica" font-size="17" textLength="202">azure_network_watcher</text><path d="M8 699.929h242" style="stroke:#000d19;stroke-width:.5"/><text x="18" y="721.924" fill="#D9B8FF" font-family="sans-serif" font-size="14" font-weight="bold" textLength="62">location</text><text x="80" y="721.924" fill="#D9B8FF" font-family="sans-serif" font-size="14" textLength="48">: string</text><text x="18" y="748.221" fill="#D9B8FF" font-family="sans-serif" font-size="14" font-weight="bold" textLength="83">properties</text><text x="101" y="748.221" fill="#D9B8FF" font-family="sans-serif" font-size="14" textLength="48">: string</text><rect width="214" height="100.383" x="22" y="438.75" fill="#3D176E" rx="2.5" ry="2.5" style="stroke:#000d19;stroke-width:.5"/><circle cx="43.3" cy="458.644" r="11" fill="#ADD1B2" style="stroke:#181818;stroke-width:1"/><path d="M46.269 464.285q-.578.297-1.219.438-.64.156-1.344.156-2.5 0-3.828-1.64-1.312-1.657-1.312-4.782t1.312-4.781q1.328-1.656 3.828-1.656.703 0 1.344.156.656.156 1.219.453v2.719q-.625-.579-1.219-.844-.594-.281-1.219-.281-1.344 0-2.031 1.078-.687 1.062-.687 3.156t.687 3.172q.688 1.062 2.031 1.062.625 0 1.219-.265.594-.281 1.219-.86z"/><text x="63.7" y="464.53" fill="#D9B8FF" font-family="Helvetica" font-size="17" textLength="158">microsoft_resource</text><path d="M23 478.539h212" style="stroke:#000d19;stroke-width:.5"/><text x="33" y="500.534" fill="#D9B8FF" font-family="sans-serif" font-size="14" font-weight="bold" textLength="35">etag</text><text x="68" y="500.534" fill="#D9B8FF" font-family="sans-serif" font-size="14" textLength="48">: string</text><text x="33" y="526.831" fill="#D9B8FF" font-family="sans-serif" font-size="14" font-weight="bold" textLength="144">provisioning_state</text><text x="177" y="526.831" fill="#D9B8FF" font-family="sans-serif" font-size="14" textLength="48">: string</text><rect width="227" height="310.758" x="15.5" y="7" fill="#3D176E" rx="2.5" ry="2.5" style="stroke:#000d19;stroke-width:.5"/><circle cx="84.25" cy="26.895" r="11" fill="#ADD1B2" style="stroke:#181818;stroke-width:1"/><path d="M87.219 32.535q-.578.297-1.219.438-.64.156-1.344.156-2.5 0-3.828-1.64-1.312-1.657-1.312-4.782t1.312-4.781q1.328-1.656 3.828-1.656.703 0 1.344.156.656.156 1.219.453v2.719q-.625-.578-1.219-.844-.594-.281-1.219-.281-1.344 0-2.031 1.078-.687 1.062-.687 3.156t.687 3.172q.688 1.062 2.031 1.062.625 0 1.219-.265.594-.281 1.219-.86z"/><text x="109.75" y="32.78" fill="#D9B8FF" font-family="Helvetica" font-size="17" textLength="71">resource</text><path d="M16.5 46.789h225" style="stroke:#000d19;stroke-width:.5"/><text x="26.5" y="68.784" fill="#D9B8FF" font-family="sans-serif" font-size="14" font-weight="bold" textLength="29">age</text><text x="55.5" y="68.784" fill="#D9B8FF" font-family="sans-serif" font-size="14" textLength="66">: duration</text><text x="26.5" y="95.081" fill="#D9B8FF" font-family="sans-serif" font-size="14" font-weight="bold" textLength="43">atime</text><text x="69.5" y="95.081" fill="#D9B8FF" font-family="sans-serif" font-size="14" textLength="70">: datetime</text><text x="26.5" y="121.378" fill="#D9B8FF" font-family="sans-serif" font-size="14" font-weight="bold" textLength="43">ctime</text><text x="69.5" y="121.378" fill="#D9B8FF" font-family="sans-serif" font-size="14" textLength="70">: datetime</text><text x="26.5" y="147.675" fill="#D9B8FF" font-family="sans-serif" font-size="14" font-weight="bold" textLength="14">id</text><text x="40.5" y="147.675" fill="#D9B8FF" font-family="sans-serif" font-size="14" textLength="48">: string</text><text x="26.5" y="173.972" fill="#D9B8FF" font-family="sans-serif" font-size="14" font-weight="bold" textLength="33">kind</text><text x="59.5" y="173.972" fill="#D9B8FF" font-family="sans-serif" font-size="14" textLength="48">: string</text><text x="26.5" y="200.269" fill="#D9B8FF" font-family="sans-serif" font-size="14" font-weight="bold" textLength="90">last_access</text><text x="116.5" y="200.269" fill="#D9B8FF" font-family="sans-serif" font-size="14" textLength="66">: duration</text><text x="26.5" y="226.565" fill="#D9B8FF" font-family="sans-serif" font-size="14" font-weight="bold" textLength="90">last_update</text><text x="116.5" y="226.565" fill="#D9B8FF" font-family="sans-serif" font-size="14" textLength="66">: duration</text><text x="26.5" y="252.862" fill="#D9B8FF" font-family="sans-serif" font-size="14" font-weight="bold" textLength="48">mtime</text><text x="74.5" y="252.862" fill="#D9B8FF" font-family="sans-serif" font-size="14" textLength="70">: datetime</text><text x="26.5" y="279.159" fill="#D9B8FF" font-family="sans-serif" font-size="14" font-weight="bold" textLength="43">name</text><text x="69.5" y="279.159" fill="#D9B8FF" font-family="sans-serif" font-size="14" textLength="48">: string</text><text x="26.5" y="305.456" fill="#D9B8FF" font-family="sans-serif" font-size="14" font-weight="bold" textLength="34">tags</text><text x="60.5" y="305.456" fill="#D9B8FF" font-family="sans-serif" font-size="14" textLength="171">: dictionary[string, string]</text><path fill="none" d="M129 557.45V660m0-120.55-6 18h12zm0-203.39v102.36m0-120.36-6 18h12z" style="stroke:#ffaf37;stroke-width:2"/></svg>
